Origami/64x64/apps/emerald-theme-manager-icon.svg

<svg width="64" height="64" version="1" xmlns="http://www.w3.org/2000/svg">
 <path d="m18.285633 6.000002a3.4289336 3.6004036 0 0 0 -2.50113 1.1373184l-12.857217 14.400176a3.4289336 3.6004036 0 0 0 -0.097098 4.81119l26.571582 32.400392a3.4289336 3.6004036 0 0 0 5.196456 0l26.57158-32.400392a3.4289336 3.6004036 0 0 0 -0.09709 -4.81119l-12.857218-14.400176a3.4289336 3.6004036 0 0 0 -2.501138 -1.1373184h-13.714364-13.714363z" style="opacity:.2"/>
 <path d="m18.285633 5.0000015a3.4289336 3.6004036 0 0 0 -2.50113 1.1373184l-12.857217 14.400176a3.4289336 3.6004036 0 0 0 -0.097098 4.81119l26.571582 32.400392a3.4289336 3.6004036 0 0 0 5.196456 0l26.57158-32.400392a3.4289336 3.6004036 0 0 0 -0.09709 -4.81119l-12.857218-14.400176a3.4289336 3.6004036 0 0 0 -2.501138 -1.1373184h-13.714364-13.714363z" style="fill:#87d53c"/>
 <path d="m18.285156 5.0000003c-0.230369-8.78e-5 -0.457386 0.023132-0.679687 0.070312a3.4289336 3.6004036 0 0 0 -0.01954 0.0039c-0.0068 0.0015-0.0127 0.00628-0.01954 0.00782-0.211563 0.047656-0.418814 0.115048-0.617188 0.203125a3.4289336 3.6004036 0 0 0 -0.01562 0.00782c-0.01334 6e-3 -0.0258 0.01336-0.03906 0.01954-0.200052 0.09324-0.389994 0.2037346-0.570312 0.3359376-9e-3 0.0066-0.01838 0.01282-0.02734 0.01954-0.18347 0.13729-0.355216 0.293464-0.511719 0.46875l-12.859369 14.402317a3.4289336 3.6004036 0 0 0 -0.921875 2.460938h59.996094a3.4289336 3.6004036 0 0 0 -0.925782 -2.460938l-12.859374-14.402343c-0.15774-0.17668-0.330506-0.3345898-0.515626-0.4726564a3.4289336 3.6004036 0 0 0 -0.03516 -0.023438c-0.1841-0.1338-0.37765-0.246523-0.58203-0.3398438a3.4289336 3.6004036 0 0 0 -0.0156 -0.00782c-0.1972-0.088782-0.40284-0.158296-0.613282-0.2070312a3.4289336 3.6004036 0 0 0 -0.0078 0 3.4289336 3.6004036 0 0 0 -0.08594 -0.01954c-0.211364-0.042467-0.426118-0.066473-0.644562-0.066389h-13.714844-13.714844z" style="opacity:.2"/>
 <path d="M 32.000002,5.0000003 46,23 18,23 Z" style="fill:#87d53c"/>
 <path d="m32 59 14-36h-28z" style="opacity:.2"/>
 <path d="m18.285156 5a3.4289336 3.6004036 0 0 0 -2.5 1.1367188l-12.857422 14.40039a3.4289336 3.6004036 0 0 0 -0.8925782 2.970703 3.4289336 3.6004036 0 0 1 0.8925782 -1.970703l12.857422-14.40039a3.4289336 3.6004036 0 0 1 2.5 -1.1367188h13.714844 13.714844a3.4289336 3.6004036 0 0 1 2.5 1.1367188l12.857422 14.40039a3.4289336 3.6004036 0 0 1 0.890625 1.962891 3.4289336 3.6004036 0 0 0 -0.890625 -2.962891l-12.857422-14.40039a3.4289336 3.6004036 0 0 0 -2.5 -1.1367188h-13.714844-13.714844z" style="fill:#ffffff;opacity:.2"/>
</svg>

<svg xmlns="http://www.w3.org/2000/svg" width="64" height="64" version="1">
 <path style="opacity:0.2" d="m 18.285633,6.000002 a 3.4289336,3.6004036 0 0 0 -2.50113,1.1373184 L 2.9272862,21.537496 a 3.4289336,3.6004036 0 0 0 -0.097098,4.81119 L 29.40177,58.749078 a 3.4289336,3.6004036 0 0 0 5.196456,0 l 26.57158,-32.400392 a 3.4289336,3.6004036 0 0 0 -0.09709,-4.81119 L 48.215498,7.1373204 A 3.4289336,3.6004036 0 0 0 45.71436,6.000002 l -13.714364,0 -13.714363,0 z"/>
 <path style="fill:#87d53c" d="m 18.285633,5.0000015 a 3.4289336,3.6004036 0 0 0 -2.50113,1.1373184 L 2.9272862,20.537496 a 3.4289336,3.6004036 0 0 0 -0.097098,4.81119 L 29.40177,57.749078 a 3.4289336,3.6004036 0 0 0 5.196456,0 l 26.57158,-32.400392 a 3.4289336,3.6004036 0 0 0 -0.09709,-4.81119 L 48.215498,6.1373199 A 3.4289336,3.6004036 0 0 0 45.71436,5.0000015 l -13.714364,0 -13.714363,0 z"/>
 <path style="opacity:0.2" d="m 18.285156,5.0000003 c -0.230369,-8.78e-5 -0.457386,0.023132 -0.679687,0.070312 a 3.4289336,3.6004036 0 0 0 -0.01954,0.0039 c -0.0068,0.0015 -0.0127,0.00628 -0.01954,0.00782 -0.211563,0.047656 -0.418814,0.115048 -0.617188,0.203125 a 3.4289336,3.6004036 0 0 0 -0.01562,0.00782 c -0.01334,0.006 -0.0258,0.01336 -0.03906,0.01954 -0.200052,0.09324 -0.389994,0.2037346 -0.570312,0.3359376 -0.009,0.0066 -0.01838,0.01282 -0.02734,0.01954 -0.18347,0.13729 -0.355216,0.293464 -0.511719,0.46875 L 2.9257812,20.539062 A 3.4289336,3.6004036 0 0 0 2.0039062,23 L 62,23 A 3.4289336,3.6004036 0 0 0 61.074218,20.539062 L 48.214844,6.1367191 c -0.15774,-0.17668 -0.330506,-0.3345898 -0.515626,-0.4726564 a 3.4289336,3.6004036 0 0 0 -0.03516,-0.023438 c -0.1841,-0.1338 -0.37765,-0.246523 -0.58203,-0.3398438 a 3.4289336,3.6004036 0 0 0 -0.0156,-0.00782 c -0.1972,-0.088782 -0.40284,-0.158296 -0.613282,-0.2070312 a 3.4289336,3.6004036 0 0 0 -0.0078,0 3.4289336,3.6004036 0 0 0 -0.08594,-0.01954 c -0.211364,-0.042467 -0.426118,-0.066473 -0.644562,-0.066389 l -13.714844,0 -13.714844,0 z"/>
 <path style="fill:#87d53c" d="M 32.000002,5.0000003 46,23 18,23 Z"/>
 <path style="opacity:0.2" d="M 32,59 46,23 18,23 Z"/>
 <path style="opacity:0.2;fill:#ffffff" d="M 18.285156 5 A 3.4289336 3.6004036 0 0 0 15.785156 6.1367188 L 2.9277344 20.537109 A 3.4289336 3.6004036 0 0 0 2.0351562 23.507812 A 3.4289336 3.6004036 0 0 1 2.9277344 21.537109 L 15.785156 7.1367188 A 3.4289336 3.6004036 0 0 1 18.285156 6 L 32 6 L 45.714844 6 A 3.4289336 3.6004036 0 0 1 48.214844 7.1367188 L 61.072266 21.537109 A 3.4289336 3.6004036 0 0 1 61.962891 23.5 A 3.4289336 3.6004036 0 0 0 61.072266 20.537109 L 48.214844 6.1367188 A 3.4289336 3.6004036 0 0 0 45.714844 5 L 32 5 L 18.285156 5 z"/>
</svg>
